Numix/16/status/indicator-keyboard-Cm-5.svg

<?xml version="1.0" encoding="UTF-8" standalone="no"?>
<svg
   xmlns:dc="http://purl.org/dc/elements/1.1/"
   xmlns:cc="http://creativecommons.org/ns#"
   xmlns:rdf="http://www.w3.org/1999/02/22-rdf-syntax-ns#"
   xmlns:svg="http://www.w3.org/2000/svg"
   xmlns="http://www.w3.org/2000/svg"
   xmlns:sodipodi="http://sodipodi.sourceforge.net/DTD/sodipodi-0.dtd"
   xmlns:inkscape="http://www.inkscape.org/namespaces/inkscape"
   viewBox="0 0 16 16"
   id="svg2"
   version="1.1"
   inkscape:version="0.91 r13725"
   sodipodi:docname="indicator-keyboard-Cm-5.svg">
  <metadata
     id="metadata14">
    <rdf:RDF>
      <cc:Work
         rdf:about="">
        <dc:format>image/svg+xml</dc:format>
        <dc:type
           rdf:resource="http://purl.org/dc/dcmitype/StillImage" />
      </cc:Work>
    </rdf:RDF>
  </metadata>
  <defs
     id="defs12" />
  <sodipodi:namedview
     pagecolor="#ffffff"
     bordercolor="#666666"
     borderopacity="1"
     objecttolerance="10"
     gridtolerance="10"
     guidetolerance="10"
     inkscape:pageopacity="0"
     inkscape:pageshadow="2"
     inkscape:window-width="640"
     inkscape:window-height="480"
     id="namedview10"
     showgrid="false"
     inkscape:zoom="14.75"
     inkscape:cx="8"
     inkscape:cy="8"
     inkscape:window-x="65"
     inkscape:window-y="24"
     inkscape:window-maximized="0"
     inkscape:current-layer="svg2" />
  <path
     style="fill:#ececec;fill-opacity:1"
     d="M 1.5996094 0 C 0.71320937 2.9605947e-16 0 0.71320937 0 1.5996094 L 0 14.400391 C 2.9605947e-16 15.286791 0.71320937 16 1.5996094 16 L 14.400391 16 C 15.286791 16 16 15.286791 16 14.400391 L 16 1.5996094 C 16 0.71320937 15.286791 0 14.400391 0 L 1.5996094 0 z M 3.1191406 4.7246094 C 3.3531406 4.7246094 3.5658125 4.7395312 3.7578125 4.7695312 C 3.9498125 4.7995313 4.1177187 4.8387187 4.2617188 4.8867188 C 4.4057188 4.9287188 4.5288594 4.9734844 4.6308594 5.0214844 C 4.7328594 5.0634844 4.8112344 5.1026719 4.8652344 5.1386719 L 4.6679688 5.6699219 C 4.5179688 5.5799219 4.3257969 5.4922031 4.0917969 5.4082031 C 3.8637969 5.3182031 3.5783281 5.2734375 3.2363281 5.2734375 C 2.8463281 5.2734375 2.5049375 5.3387031 2.2109375 5.4707031 C 1.9229375 5.6027031 1.6784688 5.7892969 1.4804688 6.0292969 C 1.2824687 6.2692969 1.13325 6.5547656 1.03125 6.8847656 C 0.93525 7.2147656 0.88671875 7.5804219 0.88671875 7.9824219 C 0.88671875 8.3964219 0.93525 8.7714219 1.03125 9.1074219 C 1.13325 9.4374219 1.2806563 9.719125 1.4726562 9.953125 C 1.6646562 10.187125 1.8978281 10.366188 2.1738281 10.492188 C 2.4558281 10.618187 2.7767187 10.681641 3.1367188 10.681641 C 3.5327187 10.681641 3.8629531 10.646219 4.1269531 10.574219 C 4.3969531 10.496219 4.6022344 10.417844 4.7402344 10.339844 L 4.9101562 10.861328 C 4.8681563 10.891328 4.7953594 10.928703 4.6933594 10.970703 C 4.5913594 11.006703 4.4626406 11.045891 4.3066406 11.087891 C 4.1506406 11.129891 3.9715781 11.161547 3.7675781 11.185547 C 3.5635781 11.215547 3.3359844 11.230469 3.0839844 11.230469 C 2.6819844 11.230469 2.3069844 11.159625 1.9589844 11.015625 C 1.6169844 10.871625 1.3165938 10.660766 1.0585938 10.384766 C 0.80659375 10.108765 0.60507812 9.7691875 0.45507812 9.3671875 C 0.31107813 8.9591875 0.24023437 8.4946563 0.24023438 7.9726562 C 0.24023438 7.4506563 0.31665625 6.9898906 0.47265625 6.5878906 C 0.63465625 6.1798906 0.84732812 5.8365469 1.1113281 5.5605469 C 1.3753281 5.2845469 1.6812969 5.0774531 2.0292969 4.9394531 C 2.3772969 4.7954531 2.7411406 4.7246094 3.1191406 4.7246094 z M 7.703125 6.3535156 C 8.291125 6.3535156 8.7184219 6.5232344 8.9824219 6.8652344 C 9.0124219 6.8412344 9.0683438 6.8020469 9.1523438 6.7480469 C 9.2423438 6.6880469 9.3543281 6.6283594 9.4863281 6.5683594 C 9.6183281 6.5083594 9.7713125 6.4580156 9.9453125 6.4160156 C 10.125312 6.3740156 10.323062 6.3535156 10.539062 6.3535156 C 10.893063 6.3535156 11.178531 6.407625 11.394531 6.515625 C 11.616531 6.617625 11.78625 6.7630781 11.90625 6.9550781 C 12.02625 7.1410781 12.108391 7.3668594 12.150391 7.6308594 C 12.192391 7.8948594 12.212891 8.1821406 12.212891 8.4941406 L 12.212891 11.095703 L 11.626953 11.095703 L 11.626953 8.6835938 C 11.626953 8.3775938 11.612031 8.1145781 11.582031 7.8925781 C 11.558031 7.6645781 11.503922 7.4779844 11.419922 7.3339844 C 11.341922 7.1839844 11.228125 7.0739531 11.078125 7.0019531 C 10.928125 6.9239531 10.734141 6.8847656 10.494141 6.8847656 C 10.314141 6.8847656 10.148047 6.9015 9.9980469 6.9375 C 9.8540469 6.9675 9.7290938 7.0066875 9.6210938 7.0546875 C 9.5130937 7.1026875 9.4235625 7.1512188 9.3515625 7.1992188 C 9.2855625 7.2472187 9.2370312 7.2826406 9.2070312 7.3066406 C 9.2610313 7.4626406 9.3002188 7.6398906 9.3242188 7.8378906 C 9.3542187 8.0298906 9.3691406 8.2332188 9.3691406 8.4492188 L 9.3691406 11.095703 L 8.7832031 11.095703 L 8.7832031 8.6835938 C 8.7832031 8.3775938 8.7682812 8.1145781 8.7382812 7.8925781 C 8.7142813 7.6645781 8.6601719 7.4779844 8.5761719 7.3339844 C 8.4921719 7.1839844 8.3727969 7.0739531 8.2167969 7.0019531 C 8.0667969 6.9239531 7.8652813 6.8847656 7.6132812 6.8847656 C 7.3312812 6.8847656 7.0925313 6.8996875 6.8945312 6.9296875 C 6.7025313 6.9596875 6.5793906 6.9857656 6.5253906 7.0097656 L 6.5253906 11.095703 L 5.9394531 11.095703 L 5.9394531 6.6054688 C 6.1134531 6.5574688 6.3392344 6.5033594 6.6152344 6.4433594 C 6.8972344 6.3833594 7.259125 6.3535156 7.703125 6.3535156 z M 13.794922 8.8417969 L 15.621094 8.8417969 L 15.621094 9.1757812 L 14.128906 9.1757812 C 14.12504 9.2498812 14.119161 9.3458906 14.111328 9.4628906 C 14.103528 9.5798906 14.095691 9.6994187 14.087891 9.8242188 C 14.080091 9.9451188 14.070294 10.062681 14.058594 10.175781 C 14.046894 10.288881 14.037097 10.379012 14.029297 10.445312 C 14.329597 10.453112 14.588241 10.490341 14.806641 10.556641 C 15.025041 10.622941 15.205303 10.711119 15.345703 10.824219 C 15.486103 10.937319 15.58995 11.074475 15.65625 11.234375 C 15.72645 11.394275 15.759766 11.572578 15.759766 11.767578 C 15.759766 11.939178 15.732328 12.097894 15.673828 12.246094 C 15.619228 12.394294 15.533016 12.523613 15.416016 12.632812 C 15.299016 12.742012 15.150103 12.828225 14.970703 12.890625 C 14.791303 12.953025 14.579684 12.984375 14.333984 12.984375 C 14.209184 12.984375 14.091622 12.974578 13.982422 12.955078 C 13.877122 12.939478 13.781113 12.919884 13.695312 12.896484 C 13.613413 12.873084 13.542875 12.849572 13.484375 12.826172 C 13.425875 12.802772 13.382769 12.783178 13.355469 12.767578 L 13.455078 12.427734 C 13.478478 12.443334 13.517666 12.462928 13.572266 12.486328 C 13.630766 12.509728 13.697384 12.533241 13.771484 12.556641 C 13.849484 12.576141 13.935697 12.593775 14.029297 12.609375 C 14.126797 12.624975 14.228684 12.632812 14.333984 12.632812 C 14.528984 12.632812 14.689659 12.611259 14.818359 12.568359 C 14.950959 12.521559 15.056766 12.458859 15.134766 12.380859 C 15.212766 12.302859 15.267628 12.212728 15.298828 12.111328 C 15.333928 12.006028 15.351562 11.894337 15.351562 11.773438 C 15.351562 11.617438 15.326091 11.476362 15.275391 11.351562 C 15.224691 11.226762 15.134559 11.120956 15.005859 11.035156 C 14.877159 10.949356 14.704728 10.884697 14.486328 10.841797 C 14.267928 10.794997 13.989697 10.771484 13.654297 10.771484 C 13.677697 10.572584 13.697291 10.392316 13.712891 10.228516 C 13.728491 10.060816 13.742206 9.9001469 13.753906 9.7480469 C 13.765606 9.5920469 13.773444 9.4431281 13.777344 9.2988281 C 13.785144 9.1506281 13.791022 8.9977969 13.794922 8.8417969 z "
     id="path4" />
</svg>

<svg xmlns="http://www.w3.org/2000/svg" viewBox="0 0 16 16">
 <path d="m 1.6 0 c -0.886 0 -1.6 0.713 -1.6 1.6 l 0 12.801 c 0 0.886 0.713 1.6 1.6 1.6 l 12.801 0 c 0.886 0 1.6 -0.713 1.6 -1.6 l 0 -12.801 c 0 -0.886 -0.713 -1.6 -1.6 -1.6 l -12.801 0 z m 1.52 4.725 c 0.234 0 0.447 0.015 0.639 0.045 c 0.192 0.03 0.36 0.069 0.504 0.117 c 0.144 0.042 0.267 0.087 0.369 0.135 c 0.102 0.042 0.18 0.081 0.234 0.117 l -0.197 0.531 c -0.15 -0.09 -0.342 -0.178 -0.576 -0.262 c -0.228 -0.09 -0.513 -0.135 -0.855 -0.135 c -0.39 0 -0.731 0.065 -1.025 0.197 c -0.288 0.132 -0.532 0.319 -0.73 0.559 c -0.198 0.24 -0.347 0.525 -0.449 0.855 c -0.096 0.33 -0.145 0.696 -0.145 1.098 c 0 0.414 0.049 0.789 0.145 1.125 c 0.102 0.33 0.249 0.612 0.441 0.846 c 0.192 0.234 0.425 0.413 0.701 0.539 c 0.282 0.126 0.603 0.189 0.963 0.189 c 0.396 0 0.726 -0.035 0.99 -0.107 c 0.27 -0.078 0.475 -0.156 0.613 -0.234 l 0.17 0.521 c -0.042 0.03 -0.115 0.067 -0.217 0.109 c -0.102 0.036 -0.231 0.075 -0.387 0.117 c -0.156 0.042 -0.335 0.074 -0.539 0.098 c -0.204 0.03 -0.432 0.045 -0.684 0.045 c -0.402 0 -0.777 -0.071 -1.125 -0.215 c -0.342 -0.144 -0.642 -0.355 -0.9 -0.631 c -0.252 -0.276 -0.454 -0.616 -0.604 -1.018 c -0.144 -0.408 -0.215 -0.873 -0.215 -1.395 c 0 -0.522 0.076 -0.983 0.232 -1.385 c 0.162 -0.408 0.375 -0.751 0.639 -1.027 c 0.264 -0.276 0.57 -0.483 0.918 -0.621 c 0.348 -0.144 0.712 -0.215 1.09 -0.215 z m 4.584 1.629 c 0.588 0 1.015 0.17 1.279 0.512 c 0.03 -0.024 0.086 -0.063 0.17 -0.117 c 0.09 -0.06 0.202 -0.12 0.334 -0.18 c 0.132 -0.06 0.285 -0.11 0.459 -0.152 c 0.18 -0.042 0.378 -0.063 0.594 -0.063 c 0.354 0 0.639 0.054 0.855 0.162 c 0.222 0.102 0.392 0.247 0.512 0.439 c 0.12 0.186 0.202 0.412 0.244 0.676 c 0.042 0.264 0.063 0.551 0.063 0.863 l 0 2.602 l -0.586 0 l 0 -2.412 c 0 -0.306 -0.015 -0.569 -0.045 -0.791 c -0.024 -0.228 -0.078 -0.415 -0.162 -0.559 c -0.078 -0.15 -0.192 -0.26 -0.342 -0.332 c -0.15 -0.078 -0.344 -0.117 -0.584 -0.117 c -0.18 0 -0.346 0.017 -0.496 0.053 c -0.144 0.03 -0.269 0.069 -0.377 0.117 c -0.108 0.048 -0.198 0.097 -0.27 0.145 c -0.066 0.048 -0.115 0.083 -0.145 0.107 c 0.054 0.156 0.093 0.333 0.117 0.531 c 0.03 0.192 0.045 0.395 0.045 0.611 l 0 2.646 l -0.586 0 l 0 -2.412 c 0 -0.306 -0.015 -0.569 -0.045 -0.791 c -0.024 -0.228 -0.078 -0.415 -0.162 -0.559 c -0.084 -0.15 -0.203 -0.26 -0.359 -0.332 c -0.15 -0.078 -0.352 -0.117 -0.604 -0.117 c -0.282 0 -0.521 0.015 -0.719 0.045 c -0.192 0.03 -0.315 0.056 -0.369 0.08 l 0 4.086 l -0.586 0 l 0 -4.49 c 0.174 -0.048 0.4 -0.102 0.676 -0.162 c 0.282 -0.06 0.644 -0.09 1.088 -0.09 z m 6.092 2.488 l 1.826 0 l 0 0.334 l -1.492 0 c -0.004 0.074 -0.01 0.17 -0.018 0.287 c -0.008 0.117 -0.016 0.237 -0.023 0.361 c -0.008 0.121 -0.018 0.238 -0.029 0.352 c -0.012 0.113 -0.021 0.203 -0.029 0.27 c 0.3 0.008 0.559 0.045 0.777 0.111 c 0.218 0.066 0.399 0.154 0.539 0.268 c 0.14 0.113 0.244 0.25 0.311 0.41 c 0.07 0.16 0.104 0.338 0.104 0.533 c 0 0.172 -0.027 0.33 -0.086 0.479 c -0.055 0.148 -0.141 0.278 -0.258 0.387 c -0.117 0.109 -0.266 0.195 -0.445 0.258 c -0.179 0.062 -0.391 0.094 -0.637 0.094 c -0.125 0 -0.242 -0.01 -0.352 -0.029 c -0.105 -0.016 -0.201 -0.035 -0.287 -0.059 c -0.082 -0.023 -0.152 -0.047 -0.211 -0.07 c -0.059 -0.023 -0.102 -0.043 -0.129 -0.059 l 0.1 -0.34 c 0.023 0.016 0.063 0.035 0.117 0.059 c 0.058 0.023 0.125 0.047 0.199 0.07 c 0.078 0.019 0.164 0.037 0.258 0.053 c 0.098 0.016 0.199 0.023 0.305 0.023 c 0.195 0 0.356 -0.022 0.484 -0.064 c 0.133 -0.047 0.238 -0.109 0.316 -0.188 c 0.078 -0.078 0.133 -0.168 0.164 -0.27 c 0.035 -0.105 0.053 -0.217 0.053 -0.338 c 0 -0.156 -0.025 -0.297 -0.076 -0.422 c -0.051 -0.125 -0.141 -0.231 -0.27 -0.316 c -0.129 -0.086 -0.301 -0.15 -0.52 -0.193 c -0.218 -0.047 -0.497 -0.07 -0.832 -0.07 c 0.023 -0.199 0.043 -0.379 0.059 -0.543 c 0.016 -0.168 0.029 -0.328 0.041 -0.48 c 0.012 -0.156 0.02 -0.305 0.023 -0.449 c 0.008 -0.148 0.014 -0.301 0.018 -0.457 z" style="fill:#ececec;fill-opacity:1"/>
</svg>
